cartflows/admin-core/assets/images/checkout_step.svg

<svg width="200" height="259" viewBox="0 0 200 259" fill="none" xmlns="http://www.w3.org/2000/svg">
<rect x="0.5" y="0.5" width="199" height="258" rx="9.5" fill="white" stroke="#EAEAEA"/>
<path d="M0 10C0 4.47715 4.47715 0 10 0H190C195.523 0 200 4.47715 200 10V28H0V10Z" fill="#E6EAED"/>
<rect x="64" y="10" width="107" height="7" rx="1" fill="white"/>
<circle cx="14" cy="14" r="4" fill="#FF3B30"/>
<circle cx="27" cy="14" r="4" fill="#FFCC00"/>
<circle cx="40" cy="14" r="4" fill="#4CD964"/>
<rect x="23" y="219" width="154" height="20" rx="2" fill="#2271B1"/>
<path d="M81.6856 232.5H83.0695V230.378H84.2328C85.7381 230.378 86.6139 229.48 86.6139 228.173C86.6139 226.872 85.7541 225.955 84.268 225.955H81.6856V232.5ZM83.0695 229.269V227.086H84.0027C84.8017 227.086 85.1884 227.521 85.1884 228.173C85.1884 228.821 84.8017 229.269 84.0091 229.269H83.0695ZM88.7552 232.593C89.4807 232.593 89.9505 232.276 90.1902 231.819H90.2286V232.5H91.5198V229.189C91.5198 228.019 90.529 227.527 89.4359 227.527C88.2598 227.527 87.4864 228.089 87.2978 228.984L88.557 229.087C88.6497 228.761 88.9406 228.521 89.4296 228.521C89.893 228.521 90.1582 228.754 90.1582 229.157V229.176C90.1582 229.493 89.8227 229.534 88.9693 229.617C87.9977 229.707 87.1252 230.033 87.1252 231.129C87.1252 232.1 87.8188 232.593 88.7552 232.593ZM89.1451 231.653C88.7264 231.653 88.426 231.458 88.426 231.084C88.426 230.701 88.7424 230.512 89.2218 230.445C89.519 230.403 90.0048 230.333 90.1678 230.224V230.745C90.1678 231.26 89.7428 231.653 89.1451 231.653ZM93.2408 234.341C94.254 234.341 94.7909 233.823 95.0689 233.031L96.977 227.597L95.5356 227.591L94.5096 231.196H94.4585L93.4422 227.591H92.0103L93.7714 232.641L93.6915 232.848C93.5125 233.309 93.1705 233.331 92.6911 233.184L92.3843 234.2C92.5792 234.283 92.8956 234.341 93.2408 234.341ZM105.257 225.955H103.88V230.071H103.822L100.997 225.955H99.7823V232.5H101.166V228.38H101.214L104.062 232.5H105.257V225.955ZM108.593 232.596C110.082 232.596 111.009 231.576 111.009 230.065C111.009 228.543 110.082 227.527 108.593 227.527C107.104 227.527 106.177 228.543 106.177 230.065C106.177 231.576 107.104 232.596 108.593 232.596ZM108.599 231.541C107.912 231.541 107.561 230.912 107.561 230.055C107.561 229.199 107.912 228.566 108.599 228.566C109.274 228.566 109.625 229.199 109.625 230.055C109.625 230.912 109.274 231.541 108.599 231.541ZM112.74 232.5H114.178L115.022 229.413H115.082L115.926 232.5H117.368L118.7 227.591H117.326L116.578 230.87H116.537L115.731 227.591H114.379L113.587 230.889H113.542L112.781 227.591H111.404L112.74 232.5Z" fill="white"/>
<path d="M24.4948 151.333C24.4948 151.057 24.7186 150.833 24.9948 150.833H176C176.276 150.833 176.5 151.057 176.5 151.333V157.333C176.5 157.609 176.276 157.833 176 157.833H24.9947C24.7186 157.833 24.4948 157.609 24.4948 157.333V151.333Z" fill="white" stroke="#B7CFE2"/>
<path d="M24.4948 168.667C24.4948 168.391 24.7186 168.167 24.9948 168.167H176C176.276 168.167 176.5 168.391 176.5 168.667V174.667C176.5 174.943 176.276 175.167 176 175.167H24.9947C24.7186 175.167 24.4948 174.943 24.4948 174.667V168.667Z" fill="white" stroke="#B7CFE2"/>
<path d="M24.4948 186C24.4948 185.724 24.7186 185.5 24.9948 185.5H68.2498C68.526 185.5 68.7498 185.724 68.7498 186V192C68.7498 192.276 68.526 192.5 68.2498 192.5H24.9947C24.7186 192.5 24.4948 192.276 24.4948 192V186Z" fill="white" stroke="#B7CFE2"/>
<path d="M78.3698 186C78.3698 185.724 78.5936 185.5 78.8698 185.5H122.125C122.401 185.5 122.625 185.724 122.625 186V192C122.625 192.276 122.401 192.5 122.125 192.5H78.8697C78.5936 192.5 78.3698 192.276 78.3698 192V186Z" fill="white" stroke="#B7CFE2"/>
<path d="M132.245 186C132.245 185.724 132.469 185.5 132.745 185.5H176C176.276 185.5 176.5 185.724 176.5 186V192C176.5 192.276 176.276 192.5 176 192.5H132.745C132.469 192.5 132.245 192.276 132.245 192V186Z" fill="white" stroke="#B7CFE2"/>
<rect x="23.5" y="202.5" width="6" height="6" rx="0.5" fill="white" stroke="#CCDEED"/>
<rect x="43.3899" y="204" width="133.61" height="2.66667" rx="1" fill="#B7CFE2"/>
<g clip-path="url(#clip0)">
<path d="M99.0048 82.3682L99.4999 82.8637L99.9951 82.3683L112.398 69.9606C112.398 69.9606 112.398 69.9605 112.398 69.9605C112.707 69.6518 113.126 69.4783 113.563 69.4783C113.999 69.4783 114.418 69.6518 114.727 69.9606C115.036 70.2694 115.209 70.6883 115.209 71.125C115.209 71.5617 115.036 71.9806 114.727 72.2894L100.664 86.3519L100.664 86.3525C100.511 86.5056 100.33 86.6271 100.13 86.7099C99.9303 86.7928 99.7162 86.8354 99.5 86.8354C99.2838 86.8354 99.0697 86.7928 98.87 86.7099C98.6703 86.6271 98.4889 86.5056 98.3363 86.3525L98.3356 86.3519L91.3044 79.3207C91.1515 79.1677 91.0302 78.9862 90.9474 78.7864C90.8647 78.5866 90.8221 78.3725 90.8221 78.1563C90.8221 77.94 90.8647 77.7259 90.9474 77.5261C91.0302 77.3263 91.1515 77.1448 91.3044 76.9919C91.4573 76.8389 91.6388 76.7176 91.8386 76.6349C92.0384 76.5521 92.2525 76.5095 92.4688 76.5095C92.685 76.5095 92.8992 76.5521 93.099 76.6349C93.2987 76.7176 93.4803 76.8389 93.6332 76.9919L99.0048 82.3682Z" fill="#2271B1" stroke="white" stroke-width="1.4"/>
<path d="M70.226 52.2055L70.0937 51.675H69.5469H64.3437C63.9078 51.675 63.4897 51.5018 63.1814 51.1936C62.8732 50.8853 62.7 50.4672 62.7 50.0312C62.7 49.5953 62.8732 49.1772 63.1814 48.8689C63.4897 48.5607 63.9078 48.3875 64.3437 48.3875H71.3748C71.3749 48.3875 71.3749 48.3875 71.375 48.3875C71.7416 48.3876 72.0976 48.5103 72.3865 48.7361C72.6754 48.9618 72.8805 49.2777 72.9692 49.6335L72.9693 49.6337L74.8677 57.2322L75.0002 57.7625H75.5469H129.968C130.209 57.7627 130.448 57.8161 130.666 57.9188C130.885 58.0216 131.078 58.1711 131.232 58.3569C131.386 58.5427 131.497 58.7601 131.558 58.9937C131.618 59.2274 131.627 59.4715 131.582 59.7087L124.551 97.2085L124.551 97.2087C124.48 97.5854 124.281 97.9256 123.986 98.1705C123.691 98.4154 123.32 98.5496 122.937 98.55H118.25H85.4375H80.7506C80.3674 98.5496 79.9964 98.4154 79.7016 98.1705C79.4069 97.9256 79.207 97.5854 79.1365 97.2087L79.1364 97.2084L72.1146 59.7787L72.1107 59.7584L72.1057 59.7383L70.226 52.2055ZM82.0073 94.6916L82.1144 95.2625H82.6953H120.992H121.573L121.68 94.6916L127.835 61.879L127.99 61.05H127.147H76.5406H75.6971L75.8526 61.879L82.0073 94.6916ZM79.3033 102.491C80.9302 100.864 83.1367 99.95 85.4375 99.95C87.7383 99.95 89.9448 100.864 91.5716 102.491C93.1985 104.118 94.1125 106.324 94.1125 108.625C94.1125 110.926 93.1985 113.132 91.5716 114.759C89.9448 116.386 87.7383 117.3 85.4375 117.3C83.1367 117.3 80.9302 116.386 79.3033 114.759C77.6765 113.132 76.7625 110.926 76.7625 108.625C76.7625 106.324 77.6765 104.118 79.3033 102.491ZM112.116 102.491C113.743 100.864 115.949 99.95 118.25 99.95C120.551 99.95 122.757 100.864 124.384 102.491C126.011 104.118 126.925 106.324 126.925 108.625C126.925 110.926 126.011 113.132 124.384 114.759C122.757 116.386 120.551 117.3 118.25 117.3C115.949 117.3 113.743 116.386 112.116 114.759C110.489 113.132 109.575 110.926 109.575 108.625C109.575 106.324 110.489 104.118 112.116 102.491ZM89.247 112.435C90.2574 111.424 90.825 110.054 90.825 108.625C90.825 107.196 90.2574 105.826 89.247 104.815C88.2367 103.805 86.8664 103.237 85.4375 103.237C84.0086 103.237 82.6383 103.805 81.628 104.815C80.6176 105.826 80.05 107.196 80.05 108.625C80.05 110.054 80.6176 111.424 81.628 112.435C82.6383 113.445 84.0086 114.012 85.4375 114.012C86.8664 114.012 88.2367 113.445 89.247 112.435ZM122.06 112.435C123.07 111.424 123.637 110.054 123.637 108.625C123.637 107.196 123.07 105.826 122.06 104.815C121.049 103.805 119.679 103.237 118.25 103.237C116.821 103.237 115.451 103.805 114.44 104.815C113.43 105.826 112.862 107.196 112.862 108.625C112.862 110.054 113.43 111.424 114.44 112.435C115.451 113.445 116.821 114.012 118.25 114.012C119.679 114.012 121.049 113.445 122.06 112.435Z" fill="#2271B1" stroke="white" stroke-width="1.4"/>
</g>
<rect x="50" y="133" width="100" height="4" rx="1" fill="#2271B1"/>
<defs>
<clipPath id="clip0">
<rect width="75" height="75" fill="white" transform="translate(62 43)"/>
</clipPath>
</defs>
</svg>

<svg width="200" height="259" fill="none" xmlns="http://www.w3.org/2000/svg"><rect x=".5" y=".5" width="199" height="258" rx="9.5" fill="#fff" stroke="#EAEAEA"/><path d="M0 10C0 4.477 4.477 0 10 0h180c5.523 0 10 4.477 10 10v18H0V10Z" fill="#E6EAED"/><rect x="64" y="10" width="107" height="7" rx="1" fill="#fff"/><circle cx="14" cy="14" r="4" fill="#FF3B30"/><circle cx="27" cy="14" r="4" fill="#FC0"/><circle cx="40" cy="14" r="4" fill="#4CD964"/><rect x="23" y="219" width="154" height="20" rx="2" fill="#2271B1"/><path d="M81.686 232.5h1.383v-2.122h1.164c1.505 0 2.38-.898 2.38-2.205 0-1.301-.859-2.218-2.345-2.218h-2.582v6.545Zm1.383-3.231v-2.183h.934c.799 0 1.185.435 1.185 1.087 0 .648-.386 1.096-1.179 1.096h-.94Zm5.686 3.324c.726 0 1.196-.317 1.435-.774h.039v.681h1.29v-3.311c0-1.17-.99-1.662-2.083-1.662-1.176 0-1.95.562-2.138 1.457l1.259.103c.093-.326.384-.566.873-.566.463 0 .728.233.728.636v.019c0 .317-.335.358-1.189.441-.971.09-1.844.416-1.844 1.512 0 .971.694 1.464 1.63 1.464Zm.39-.94c-.419 0-.719-.195-.719-.569 0-.383.316-.572.796-.639.297-.042.783-.112.946-.221v.521c0 .515-.425.908-1.023.908Zm4.096 2.688c1.013 0 1.55-.518 1.828-1.31l1.908-5.434-1.441-.006-1.026 3.605h-.052l-1.016-3.605H92.01l1.761 5.05-.08.207c-.178.461-.52.483-1 .336l-.307 1.016c.195.083.512.141.857.141Zm12.016-8.386h-1.377v4.116h-.058l-2.825-4.116h-1.215v6.545h1.384v-4.12h.048l2.848 4.12h1.195v-6.545Zm3.336 6.641c1.489 0 2.416-1.02 2.416-2.531 0-1.522-.927-2.538-2.416-2.538-1.489 0-2.416 1.016-2.416 2.538 0 1.511.927 2.531 2.416 2.531Zm.006-1.055c-.687 0-1.038-.629-1.038-1.486 0-.856.351-1.489 1.038-1.489.675 0 1.026.633 1.026 1.489 0 .857-.351 1.486-1.026 1.486Zm4.141.959h1.438l.844-3.087h.06l.844 3.087h1.442l1.332-4.909h-1.374l-.748 3.279h-.041l-.806-3.279h-1.352l-.792 3.298h-.045l-.761-3.298h-1.377l1.336 4.909Z" fill="#fff"/><path d="M24.495 151.333a.5.5 0 0 1 .5-.5H176a.5.5 0 0 1 .5.5v6a.5.5 0 0 1-.5.5H24.995a.5.5 0 0 1-.5-.5v-6ZM24.495 168.667a.5.5 0 0 1 .5-.5H176a.5.5 0 0 1 .5.5v6a.5.5 0 0 1-.5.5H24.995a.5.5 0 0 1-.5-.5v-6ZM24.495 186a.5.5 0 0 1 .5-.5H68.25a.5.5 0 0 1 .5.5v6a.5.5 0 0 1-.5.5H24.995a.5.5 0 0 1-.5-.5v-6ZM78.37 186a.5.5 0 0 1 .5-.5h43.255a.5.5 0 0 1 .5.5v6a.5.5 0 0 1-.5.5H78.87a.5.5 0 0 1-.5-.5v-6ZM132.245 186a.5.5 0 0 1 .5-.5H176a.5.5 0 0 1 .5.5v6a.5.5 0 0 1-.5.5h-43.255a.5.5 0 0 1-.5-.5v-6Z" fill="#fff" stroke="#B7CFE2"/><rect x="23.5" y="202.5" width="6" height="6" rx=".5" fill="#fff" stroke="#CCDEED"/><rect x="43.39" y="204" width="133.61" height="2.667" rx="1" fill="#B7CFE2"/><g clip-path="url(#a)" fill="#2271B1" stroke="#fff" stroke-width="1.4"><path d="m99.005 82.368.495.496.495-.496 12.403-12.407a1.648 1.648 0 0 1 2.811 1.164c0 .437-.173.856-.482 1.164l-14.063 14.063a1.643 1.643 0 0 1-2.328 0l-7.032-7.031a1.649 1.649 0 0 1 0-2.33 1.644 1.644 0 0 1 2.33 0l5.37 5.377Z"/><path d="m70.226 52.206-.132-.531h-5.75a1.644 1.644 0 0 1 0-3.287H71.375a1.643 1.643 0 0 1 1.594 1.245l1.899 7.6.132.53H129.968a1.643 1.643 0 0 1 1.614 1.946l-7.031 37.5a1.645 1.645 0 0 1-1.614 1.341H80.751a1.644 1.644 0 0 1-1.615-1.341l-7.021-37.43-.004-.02-.005-.02-1.88-7.533Zm11.781 42.486.107.57h39.459l.107-.57 6.155-32.813.155-.829H75.697l.156.829 6.154 32.813Zm-2.704 7.799a8.675 8.675 0 1 1 12.269 12.267 8.675 8.675 0 0 1-12.269-12.267Zm32.813 0a8.674 8.674 0 1 1 12.268 12.266 8.674 8.674 0 0 1-12.268-12.266Zm-22.869 9.944a5.39 5.39 0 0 0-3.81-9.198 5.389 5.389 0 0 0-3.809 9.198 5.388 5.388 0 0 0 7.619 0Zm32.813 0a5.39 5.39 0 0 0-3.81-9.198 5.391 5.391 0 0 0-5.388 5.388 5.39 5.39 0 0 0 9.198 3.81Z"/></g><rect x="50" y="133" width="100" height="4" rx="1" fill="#2271B1"/><defs><clipPath id="a"><path fill="#fff" transform="translate(62 43)" d="M0 0h75v75H0z"/></clipPath></defs></svg>
